src/assets/dl.svg

<?xml version="1.0" encoding="UTF-8"?>
<!DOCTYPE svg  PUBLIC '-//W3C//DTD SVG 1.1//EN'  'http://www.w3.org/Graphics/SVG/1.1/DTD/svg11.dtd'>
<svg width="800px" height="800px" fill="none" viewBox="-2.4 -2.4 28.8 28.8" xmlns="http://www.w3.org/2000/svg">
<g stroke="#eee" stroke-linecap="round" stroke-linejoin="round" stroke-width="2">
<path d="m12 16v-8"/>
<path d="m9 13 2.913 2.913c0.048 0.048 0.126 0.048 0.174 0l2.913-2.913"/>
<path d="m3 15v1 3c0 1.1046 0.89543 2 2 2h14c1.1046 0 2-0.8954 2-2v-3-1"/>
</g>
</svg>

<!DOCTYPE svg PUBLIC "-//W3C//DTD SVG 1.1//EN" "http://www.w3.org/Graphics/SVG/1.1/DTD/svg11.dtd">
<!-- Uploaded to: SVG Repo, www.svgrepo.com, Transformed by: SVG Repo Mixer Tools -->
<svg width="800px" height="800px" viewBox="-2.4 -2.4 28.80 28.80" fill="none" xmlns="http://www.w3.org/2000/svg">
<g id="SVGRepo_bgCarrier" stroke-width="0"/>
<g id="SVGRepo_tracerCarrier" stroke-linecap="round" stroke-linejoin="round"/>
<g id="SVGRepo_iconCarrier"> <path d="M12 16L12 8" stroke="#EEEEEE" stroke-width="2" stroke-linecap="round" stroke-linejoin="round"/> <path d="M9 13L11.913 15.913V15.913C11.961 15.961 12.039 15.961 12.087 15.913V15.913L15 13" stroke="#EEEEEE" stroke-width="2" stroke-linecap="round" stroke-linejoin="round"/> <path d="M3 15L3 16L3 19C3 20.1046 3.89543 21 5 21L19 21C20.1046 21 21 20.1046 21 19L21 16L21 15" stroke="#EEEEEE" stroke-width="2" stroke-linecap="round" stroke-linejoin="round"/> </g>
</svg>
